X: 106
T: Fault il que heur soye
N: Derived from Mar3005-Fault_il_que_heur_soye.krn
C: Johannes Martini
%%abc-version 2.0
%%abcx-abcm2ps-target-version 5.9.1 (29 Sep 2008)
%%abc-creator hum2abc beta
%%abcx-conversion-date 2019/02/17 07:19:43
%%abc-edited-by Jesse Rodin
%%abc-edited-by Chris Gage 10-30-2014
%%abcx-initial-encoding-date 2015/02/28/
%%humdrum-veritas 2393416358
%%humdrum-veritas-data 2983542904
%%linebreak <none>
%%barnumbers 0
L: 1/4
M: 2/1
Q: 1/2=120
%%staves [1 2 3 4]
V: 1 clef=treble
V: 2 clef=treble-8
V: 3 clef=bass
V: 4 clef=bass
K: C
[V:1] z8 | 
[V:2] z8 | 
[V:3] z4C,4 | 
[V:4] z4C,3D, | 
[V:1] z8 | 
[V:2] z8 | 
[V:3] C,8- | 
[V:4] E,3F,G,2A,2 | 
[V:1] z8 | 
[V:2] z8 | 
[V:3] C,4B,,4 | 
[V:4] G,2F,E,D,E,F,G, | 
[V:1] z8 | 
[V:2] z8 | 
[V:3] C,4A,,4 | 
[V:4] E,2G,4F,2 | 
[V:1] z8 | 
[V:2] z8 | 
[V:3] G,,3A,,B,,2C,2- | 
[V:4] G,2F,E,D,2C,2 | 
[V:1] z4C3D | 
[V:2] z4c4 | 
[V:3] C,2B,,2C,4 | 
[V:4] D,4z2C,2 | 
[V:1] E3FG2A2 | 
[V:2] c8- | 
[V:3] z8 | 
[V:4] C,3D,E,2F,2 | 
[V:1] G2FEDEFG | 
[V:2] c4B4 | 
[V:3] z8 | 
[V:4] E,2F,2G,F,E,D, | 
[V:1] E2G4F2 | 
[V:2] c4A4 | 
[V:3] z8 | 
[V:4] C,4z2D,2 | 
[V:1] G2FED2C2 | 
[V:2] G3AB2c2- | 
[V:3] z8 | 
[V:4] E,D,E,F,G,2A,2 | 
[V:1] D4C4 | 
[V:2] c2B2c4 | 
[V:3] z4G,4 | 
[V:4] G,4C,3B,, | 
[V:1] B,2D4CB, | 
[V:2] d8- | 
[V:3] G,8 | 
[V:4] G,,3A,,B,,2C,2 | 
[V:1] A,4G,4 | 
[V:2] d4z4 | 
[V:3] F,4G,4 | 
[V:4] D,4z2G,,2 | 
[V:1] z8 | 
[V:2] c4B2d2- | 
[V:3] E,4D,3E, | 
[V:4] A,,2C,2G,,A,,B,,C, | 
[V:1] z8 | 
[V:2] d2cBA4 | 
[V:3] F,2G,4^F,2 | 
[V:4] D,2G,,2D,4 | 
[V:1] z4G4 | 
[V:2] G8 | 
[V:3] G,4E,4 | 
[V:4] (3:2:5E,2D,2C,2B,,2C,4 | 
[V:1] A2B2c2d2 | 
[V:2] c4A4 | 
[V:3] F,8 | 
[V:4] F,,4z2F,,2 | 
[V:1] B4A2c2- | 
[V:2] G4F4 | 
[V:3] D,4z2C,2 | 
[V:4] G,,4A,,4 | 
[V:1] c2B2A2GF | 
[V:2] G4A2B2 | 
[V:3] D,4F,2D,2 | 
[V:4] G,,4z2G,,2 | 
[V:1] E2D2z2G2- | 
[V:2] c2d2B4 | 
[V:3] E,2F,2G,4 | 
[V:4] C,2B,,A,,G,,4 | 
[V:1] G2^FEF4 | 
[V:2] A8 | 
[V:3] z4A,4 | 
[V:4] (3D,4C,4D,4 | 
[V:1] G8- | 
[V:2] G8 | 
[V:3] B,2C2D4 | 
[V:4] G,,4z2G,2- | 
[V:1] G8 | 
[V:2] z4G4 | 
[V:3] G,8 | 
[V:4] G,A,B,3CD2- | 
[V:1] z4E4 | 
[V:2] D4G4 | 
[V:3] F,4E,4 | 
[V:4] DCB,A,G,2C2- | 
[V:1] F4D4 | 
[V:2] A4F4 | 
[V:3] D,8 | 
[V:4] C2B,A,B,4 | 
[V:1] E2G3AB2- | 
[V:2] G4g4 | 
[V:3] C,4E,4 | 
[V:4] C3B,G,4 | 
[V:1] Bcd3cBA | 
[V:2] e2f2g3f | 
[V:3] C,2_B,,2G,,4 | 
[V:4] z8 | 
[V:1] G2c4B2 | 
[V:2] edc2d4 | 
[V:3] G,2A,2G,4 | 
[V:4] z4z2G,,2 | 
[V:1] c4z4 | 
[V:2] c4z4 | 
[V:3] C,4G,,2A,,2 | 
[V:4] A,,2C,2B,,2C,2- | 
[V:1] z8 | 
[V:2] z8 | 
[V:3] C,2B,,2C,4 | 
[V:4] C,2D,2E,2G,2 | 
[V:1] z8 | 
[V:2] z8 | 
[V:3] D,2E,2G,2F,2 | 
[V:4] F,2G,4A,2 | 
[V:1] z8 | 
[V:2] z8 | 
[V:3] G,4D,4 | 
[V:4] G,2B,3A,A,2- | 
[V:1] z8 | 
[V:2] z8 | 
[V:3] C,2B,,2A,,4 | 
[V:4] A,G,G,4^F,2 | 
[V:1] z8 | 
[V:2] z4d4- | 
[V:3] G,,4z4 | 
[V:4] G,8 | 
[V:1] z4G4- | 
[V:2] d2^cB^c4 | 
[V:3] G,8 | 
[V:4] E,8 | 
[V:1] G2^FEF4 | 
[V:2] d8 | 
[V:3] A,8 | 
[V:4] D,8 | 
[V:1] G8 | 
[V:2] B4G4 | 
[V:3] G,8 | 
[V:4] z4E,4 | 
[V:1] E4C4 | 
[V:2] A8 | 
[V:3] z8 | 
[V:4] A,,6C,2- | 
[V:1] D8 | 
[V:2] z4G4- | 
[V:3] G,,4D,4 | 
[V:4] C,2B,,A,,B,,4 | 
[V:1] z4C4- | 
[V:2] G2^FE^F4 | 
[V:3] E,4C,4 | 
[V:4] C,4A,,4 | 
[V:1] C2B,A,B,4 | 
[V:2] G8 | 
[V:3] D,8 | 
[V:4] G,,8 | 
[V:1] z2G2F2E2- | 
[V:2] E4C4 | 
[V:3] C,4A,,4 | 
[V:4] [M:2/1](3E,2F,2G,2(3A,2E,2F,2 | 
[V:1] E2DCB,3A, | 
[V:2] D8 | 
[V:3] G,,2F,,2G,,4 | 
[V:4] (3:2:4G,4A,2G,4F,2 | 
[V:1] C4E4- | 
[V:2] C8 | 
[V:3] z4C,4 | 
[V:4] (3E,6F,2G,4 | 
[V:1] E2F2G4 | 
[V:2] z4c4 | 
[V:3] G,6F,2 | 
[V:4] (3C,6D,2E,4 | 
[V:1] A4G4 | 
[V:2] c8 | 
[V:3] E,4E,4 | 
[V:4] (3A,,6B,,2C,4 | 
[V:1] c6BA | 
[V:2] A8 | 
[V:3] F,8 | 
[V:4] (3:2:2F,,8F,,4 | 
[V:1] !fermata!B8 | 
[V:2] !fermata!G8 | 
[V:3] !fermata!D,8 | 
[V:4] (3:2:1!fermata!G,,12 | 
[V:1] z8 | 
[V:2] z8 | 
[V:3] G,6F,2 | 
[V:4] [M:2/1]z8 | 
[V:1] z8 | 
[V:2] z8 | 
[V:3] G,4A,4 | 
[V:4] z8 | 
[V:1] G6F2 | 
[V:2] z8 | 
[V:3] G,2G,3F,E,D, | 
[V:4] z8 | 
[V:1] G4A4 | 
[V:2] z8 | 
[V:3] E,4D,4 | 
[V:4] z8 | 
[V:1] G2G3FED | 
[V:2] z8 | 
[V:3] E,4G,4 | 
[V:4] C,6B,,2 | 
[V:1] E4D4 | 
[V:2] z8 | 
[V:3] z2A,2B,A,G,F, | 
[V:4] C,4D,4 | 
[V:1] z8 | 
[V:2] c6B2 | 
[V:3] E,2A,3G,G,2- | 
[V:4] C,2C,3B,,A,,G,, | 
[V:1] z2A2BAGF | 
[V:2] c4d4 | 
[V:3] G,2^F,2G,4 | 
[V:4] A,,4G,,4 | 
[V:1] E2A4G2- | 
[V:2] c2c3BAG | 
[V:3] C,4z4 | 
[V:4] A,,3B,,C,D,E,2 | 
[V:1] G2^F2G4 | 
[V:2] A4G2B2 | 
[V:3] z4G,,4 | 
[V:4] D,4G,4 | 
[V:1] z8 | 
[V:2] c2d3cc2- | 
[V:3] G,2A,2D,2G,2- | 
[V:4] E,2D,2B,,2C,2 | 
[V:1] D4E4 | 
[V:2] c2B2c4 | 
[V:3] G,2F,2G,4 | 
[V:4] D,4C,4 | 
[V:1] F2G4FE | 
[V:2] z8 | 
[V:3] C,2D,2E,2C,2 | 
[V:4] A,,2G,,2C,2C,2- | 
[V:1] F4E2C2- | 
[V:2] d4e4 | 
[V:3] D,4z2G,2 | 
[V:4] C,2B,,2C,4 | 
[V:1] C2B,2C2E2 | 
[V:2] f2g4fe | 
[V:3] A,2G,2E,2C,2 | 
[V:4] z4C,4 | 
[V:1] D4C4 | 
[V:2] f4e2c2- | 
[V:3] D,3C,A,,2C,2 | 
[V:4] _B,,4C,4 | 
[V:1] z2G2A2c2- | 
[V:2] c2B2c2e2 | 
[V:3] G,,4z4 | 
[V:4] G,4F,2C,2 | 
[V:1] c2B2c2A2- | 
[V:2] d4c4 | 
[V:3] G,,4C,3D, | 
[V:4] G,4A,2F,2 | 
[V:1] AGG4F2 | 
[V:2] B2c2A4 | 
[V:3] E,4F,3E, | 
[V:4] G,2C,2D,4 | 
[V:1] G2E3CF2- | 
[V:2] G4A4 | 
[V:3] C,4A,,4 | 
[V:4] E,4z4 | 
[V:1] F2E2F2D2- | 
[V:2] G2A2F4 | 
[V:3] C,4D,4 | 
[V:4] (3C6B,2A,4 | 
[V:1] DB,E4D2 | 
[V:2] G4F2G2 | 
[V:3] G,,4D,4 | 
[V:4] G,4z2G,,2 | 
[V:1] E2C3A,D2- | 
[V:2] E4F4 | 
[V:3] z2A,4_B,2 | 
[V:4] C,2A,,2D,2_B,,2 | 
[V:1] DCC4B,2 | 
[V:2] E2F2D4 | 
[V:3] G,2A,2G,4 | 
[V:4] C,2F,,2G,,4 | 
[V:1] C4z4 | 
[V:2] C8- | 
[V:3] z2G,3F,G,2 | 
[V:4] G,2E,3D,C,2 | 
[V:1] z8 | 
[V:2] C8 | 
[V:3] A,2G,4E,2 | 
[V:4] z2G,3F,G,2 | 
[V:1] z2G3FG2 | 
[V:2] z8 | 
[V:3] F,2G,2E,4 | 
[V:4] A,2G,4E,2 | 
[V:1] A2G4E2 | 
[V:2] z2c3Bc2 | 
[V:3] D,2E,2C,2G,2 | 
[V:4] F,2G,2E,4 | 
[V:1] F2G2E4 | 
[V:2] d2c4A2 | 
[V:3] F,2C,3D,E,F, | 
[V:4] D,2E,2C,3B,, | 
[V:1] D2G4F2 | 
[V:2] B2c2A4 | 
[V:3] G,4E,2D,2 | 
[V:4] G,,4C,2D,2 | 
[V:1] G4A2B2 | 
[V:2] G2c4B2 | 
[V:3] C,4F,2G,2 | 
[V:4] E,D,C,B,,A,,2G,,2 | 
[V:1] G2c4B2 | 
[V:2] c4d2e2 | 
[V:3] E,3F,G,4 | 
[V:4] C,2A,,2G,,4 | 
[V:1] c2A4G2 | 
[V:2] c2f4e2 | 
[V:3] A,4D,2G,2 | 
[V:4] C,2D,2F,2C,2 | 
[V:1] A2B3Ac2- | 
[V:2] f2d3ce2- | 
[V:3] F,2G,4E,2 | 
[V:4] z2G,,4C,2- | 
[V:1] cBAGc2B2- | 
[V:2] edcBA2d2- | 
[V:3] C,2F,4G,2 | 
[V:4] C,2F,,2A,,2G,,2- | 
[V:1] BAG4^F2 | 
[V:2] dcB2A4 | 
[V:3] D,3E,F,4 | 
[V:4] G,,4D,4 | 
[V:1] G8 |]  
[V:2] G8 |]  
[V:3] D,8 |]  
[V:4] G,,8 |]  



